lib/flags/m/760.svg

<svg xmlns="http://www.w3.org/2000/svg" fill="none" viewBox="0 0 20 15"><mask id="760_svg__a" width="20" height="15" x="0" y="0" mask-type="alpha" maskUnits="userSpaceOnUse"><path fill="#fff" d="M0 0H20V15H0z"/></mask><g fill-rule="evenodd" clip-rule="evenodd" mask="url(#760_svg__a)"><path fill="#F7FCFF" d="M0 0H20V15H0V0Z"/><path fill="#409100" d="M5.62612 8.66917 4.45695 9.375 4.72363 7.99765 3.75 6.96684 5.06835 6.9111 5.62612 5.625 6.18389 6.9111H7.5L6.52861 7.99765 6.82106 9.375 5.62612 8.66917zM14.3761 8.66917 13.207 9.375 13.4736 7.99765 12.5 6.96684 13.8184 6.9111 14.3761 5.625 14.9339 6.9111H16.25L15.2786 7.99765 15.5711 9.375 14.3761 8.66917z"/><path fill="#E31D1C" d="M0 0V5H20V0H0Z"/><path fill="#272727" d="M0 10V15H20V10H0Z"/></g></svg>

<svg xmlns="http://www.w3.org/2000/svg" fill="none" viewBox="0 0 20 15"><mask id="760_svg__a" width="20" height="15" x="0" y="0" maskUnits="userSpaceOnUse"><path fill="#fff" d="M0 0h20v15H0z"/></mask><g fill-rule="evenodd" clip-rule="evenodd" mask="url(#760_svg__a)"><path fill="#F7FCFF" d="M0 0h20v15H0V0z"/><path fill="#409100" d="M5.626 8.67l-1.17.705.268-1.377-.974-1.031 1.318-.056.558-1.286.558 1.286H7.5l-.971 1.087.292 1.377-1.195-.706zm8.75 0l-1.169.705.267-1.377-.974-1.031 1.318-.056.558-1.286.558 1.286h1.316l-.971 1.087.292 1.377-1.195-.706z"/><path fill="#E31D1C" d="M0 0v5h20V0H0z"/><path fill="#272727" d="M0 10v5h20v-5H0z"/></g></svg>
